X: 220
T: Harvest Home
C:
O:Scotland
B:Keith Norman MacDonald : "The Skye collection of the best reels & strathspeys extant" : 1887
Z:Ralph Palmer
R:Strathspey
M:C
L:1/8
K:D
A !segno!| DD{/G}F>D A>D{/G}F>D | A,A,C>A, E>A,C>A, | DD{/G}F>D A>D{/G}F>A | (3Bcd (3efg f<dd:|
f | ddf>d {ef}g>ef>d | {ef}g2 e>d c>BA>f | ddf>e {ef}g>ef>d | B<ge>c {/c}d2 A>f |
ddf>d {ef}g>ef>d | {ef}g2 e>d c>BA>c | (3def (3efg (3fed (3cBA | (3GAB (3ABc (3{/c}dAG (3FED !segno!|]


